packages/tokens/icons/community/size32Px.svg

<svg viewBox="0 0 32 32" fill="none" xmlns="http://www.w3.org/2000/svg" width="1em" height="1em"><path d="M4.5 20C4.5 21.3807 5.61929 22.5 7 22.5C8.38071 22.5 9.5 21.3807 9.5 20C9.5 18.6193 8.38071 17.5 7 17.5C5.61929 17.5 4.5 18.6193 4.5 20Z" stroke="currentColor" stroke-linecap="round" stroke-linejoin="round"/><path d="M8.5 24.5H4.5C3.39543 24.5 2.5 25.3954 2.5 26.5V28.5" stroke="currentColor" stroke-linecap="round"/><path d="M27.5 20C27.5 21.3807 26.3807 22.5 25 22.5C23.6193 22.5 22.5 21.3807 22.5 20C22.5 18.6193 23.6193 17.5 25 17.5C26.3807 17.5 27.5 18.6193 27.5 20Z" stroke="currentColor" stroke-linecap="round" stroke-linejoin="round"/><path d="M23.5 24.5H27.5C28.6046 24.5 29.5 25.3954 29.5 26.5V28.5" stroke="currentColor" stroke-linecap="round"/><path d="M10.5 29.5V27.7857C10.5 26.5233 11.3954 25.5 12.5 25.5H19.5C20.6046 25.5 21.5 26.5233 21.5 27.7857V29.5" stroke="currentColor" stroke-linecap="round" stroke-linejoin="round"/><path d="M19.5 20C19.5 21.933 17.933 23.5 16 23.5C14.067 23.5 12.5 21.933 12.5 20C12.5 18.067 14.067 16.5 16 16.5C17.933 16.5 19.5 18.067 19.5 20Z" stroke="currentColor" stroke-linecap="round" stroke-linejoin="round"/><path d="M22.5 5.03813V4.51904C22.5 3.41447 21.6046 2.51904 20.5 2.51904L4.5 2.51904C3.39543 2.51904 2.5 3.41447 2.5 4.51904L2.5 15.6274C2.5 16.1789 2.94704 16.6259 3.49848 16.6259V16.6259C3.81404 16.6259 4.11103 16.4767 4.29945 16.2236L5.2001 15.0136C5.3888 14.76 5.68624 14.6106 6.00228 14.6106L15.5 14.6106" stroke="currentColor" stroke-linecap="round"/><path d="M17.5 8.54956V12.6106C17.5 13.7152 18.3954 14.6106 19.5 14.6106L26.5217 14.6106C26.8242 14.6106 27.1104 14.7475 27.3002 14.9829L28.4473 16.4055C28.5597 16.5449 28.7291 16.6259 28.9081 16.6259C29.235 16.6259 29.5 16.3609 29.5 16.034V8.54956C29.5 7.44499 28.6046 6.54956 27.5 6.54956L19.5 6.54956C18.3954 6.54956 17.5 7.44499 17.5 8.54956Z" stroke="currentColor" stroke-linejoin="round"/><path d="M22.5 10.0762C22.5 10.3602 22.2726 10.5839 22 10.5839C21.7274 10.5839 21.5 10.3602 21.5 10.0762C21.5 9.79229 21.7274 9.5686 22 9.5686C22.2726 9.5686 22.5 9.79229 22.5 10.0762Z" stroke="currentColor"/><path d="M22.49 10.1971L21.49 11.9424" stroke="currentColor" stroke-linecap="round"/><path d="M25.5 10.0762C25.5 10.3602 25.2726 10.5839 25 10.5839C24.7274 10.5839 24.5 10.3602 24.5 10.0762C24.5 9.79229 24.7274 9.5686 25 9.5686C25.2726 9.5686 25.5 9.79229 25.5 10.0762Z" stroke="currentColor"/><path d="M25.49 10.1971L24.49 11.9424" stroke="currentColor" stroke-linecap="round"/><path d="M10.5 8.06104C10.5 8.90149 9.82485 9.57631 9 9.57631C8.17515 9.57631 7.5 8.90149 7.5 8.06104C7.5 7.22059 8.17515 6.54578 9 6.54578C9.82485 6.54578 10.5 7.22059 10.5 8.06104Z" stroke="currentColor"/><line x1="0.5" y1="-0.5" x2="3.52292" y2="-0.5" transform="matrix(-0.497151 -0.867664 0.864371 -0.502854 10 11.8215)" stroke="currentColor" stroke-linecap="round"/><path d="M15.5 8.06104C15.5 8.90149 14.8248 9.57631 14 9.57631C13.1752 9.57631 12.5 8.90149 12.5 8.06104C12.5 7.22059 13.1752 6.54578 14 6.54578C14.8248 6.54578 15.5 7.22059 15.5 8.06104Z" stroke="currentColor"/><line x1="0.5" y1="-0.5" x2="3.52292" y2="-0.5" transform="matrix(-0.497151 -0.867664 0.864371 -0.502854 15 11.8215)" stroke="currentColor" stroke-linecap="round"/></svg>

<svg xmlns="http://www.w3.org/2000/svg" fill="none" viewBox="0 0 32 32" width="1em" height="1em"><path stroke="currentColor" stroke-linecap="round" stroke-linejoin="round" d="M4.5 20a2.5 2.5 0 1 0 5 0 2.5 2.5 0 0 0-5 0Z"/><path stroke="currentColor" stroke-linecap="round" d="M8.5 24.5h-4a2 2 0 0 0-2 2v2"/><path stroke="currentColor" stroke-linecap="round" stroke-linejoin="round" d="M27.5 20a2.5 2.5 0 1 1-5 0 2.5 2.5 0 0 1 5 0Z"/><path stroke="currentColor" stroke-linecap="round" d="M23.5 24.5h4a2 2 0 0 1 2 2v2"/><path stroke="currentColor" stroke-linecap="round" stroke-linejoin="round" d="M10.5 29.5v-1.714c0-1.263.895-2.286 2-2.286h7c1.105 0 2 1.023 2 2.286V29.5m-2-9.5a3.5 3.5 0 1 1-7 0 3.5 3.5 0 0 1 7 0Z"/><path stroke="currentColor" stroke-linecap="round" d="M22.5 5.038V4.52a2 2 0 0 0-2-2h-16a2 2 0 0 0-2 2v11.108c0 .552.447.999.998.999v0a1 1 0 0 0 .801-.402l.901-1.21a1 1 0 0 1 .802-.403H15.5"/><path stroke="currentColor" stroke-linejoin="round" d="M17.5 8.55v4.06a2 2 0 0 0 2 2h7.022a1 1 0 0 1 .778.373l1.147 1.422a.592.592 0 0 0 1.053-.371V8.55a2 2 0 0 0-2-2h-8a2 2 0 0 0-2 2Z"/><path stroke="currentColor" d="M22.5 10.076a.504.504 0 0 1-.5.508.504.504 0 0 1-.5-.508c0-.284.227-.507.5-.507s.5.223.5.507Z"/><path stroke="currentColor" stroke-linecap="round" d="m22.49 10.197-1 1.745"/><path stroke="currentColor" d="M25.5 10.076a.504.504 0 0 1-.5.508.504.504 0 0 1-.5-.508c0-.284.227-.507.5-.507s.5.223.5.507Z"/><path stroke="currentColor" stroke-linecap="round" d="m25.49 10.197-1 1.745"/><path stroke="currentColor" d="M10.5 8.061c0 .84-.675 1.515-1.5 1.515s-1.5-.675-1.5-1.515c0-.84.675-1.515 1.5-1.515s1.5.675 1.5 1.515Z"/><path stroke="currentColor" stroke-linecap="round" d="M.5-.5h3.023" transform="matrix(-.49715 -.86766 .86437 -.50285 10 11.822)"/><path stroke="currentColor" d="M15.5 8.061c0 .84-.675 1.515-1.5 1.515s-1.5-.675-1.5-1.515c0-.84.675-1.515 1.5-1.515s1.5.675 1.5 1.515Z"/><path stroke="currentColor" stroke-linecap="round" d="M.5-.5h3.023" transform="matrix(-.49715 -.86766 .86437 -.50285 15 11.822)"/></svg>
